X:1
T:Old 100th, LM
T:Old 100th, LM
T:Attributed to Louis Bourgeois, 1551
T:Public  Domain Courtesy of the Cyber Hymnal™
C:Attributed to Louis Bourgeois, 1551
Z:Public  Domain
Z:Courtesy of the Cyber Hymnal™
%%score ( 1 2 ) ( 3 4 )
L:1/8
Q:1/4=112
M:4/4
K:G
V:1 treble 
V:2 treble 
V:3 bass 
V:4 bass 
V:1
 [DG]4 | [DG]2 [DF]2 [CE]2 [B,D]2 | [B,G]4 [DA]4 | [DB]4 [DB]4 | [DB]2 [DB]2 [DA]2 [B,G]2 | %5
 [Ec]4 [DB]4 | [DA]4 G4 | [DA]2 [DB]2 [DA]2 [DG]2 | [CE]4 [CF]4 | [DG]4 [Dd]4 | [DB]2 G2 [FA]2 c2 | %11
 [GB]4 [FA]4 | [B,G]4 |] %13
V:2
 x4 | x8 | x8 | x8 | x8 | x8 | x4 G4 | x8 | x8 | x8 | x2 G2 (EF) x2 | x8 | x4 |] %13
V:3
 [G,B,]4 | [G,B,]2 [D,A,]2 [E,G,]2 [B,,F,]2 | [E,G,]4 [D,F,]4 | [G,,G,]4 G,4 | %4
 G,2 G,2 [D,F,]2 [E,G,]2 | [C,G,]4 [G,,G,]4 | [D,F,]4 [E,B,]4 | [F,A,]2 G,2 [D,F,]2 [B,,G,]2 | %8
 [C,G,]4 [A,,A,]4 | [G,,B,]4 [F,A,]4 | G,2 [E,B,]2 [D,D]2 [A,,E]2 | D4 (D2 C2) | [G,,G,]4 |] %13
V:4
 x4 | x8 | x8 | x4 G,4 | G,2 G,2 x4 | x8 | x8 | x2 G,2 x4 | x8 | x8 | G,2 x6 | (B,,2 C,2) D,4 | %12
 x4 |] %13

